packages/foundations/assets/icons/functional/images/devices/mobile_phone_disabled_32.svg

<svg width="32" height="32" viewBox="0 0 32 32" fill="none" xmlns="http://www.w3.org/2000/svg">
<g clip-path="url(#clip0_185_733)">
<path fill-rule="evenodd" clip-rule="evenodd" d="M24 12.246V27C24 28.6569 22.6569 30 21 30H11C9.75267 29.995 8.63998 29.2149 8.21 28.044L10 26.243V27C10 27.5523 10.4477 28 11 28H21C21.5523 28 22 27.5523 22 27V14.246L24 12.246ZM20.9877 2C22.6446 2 24 3.34315 24 5V6.586L26.2807 4.293C26.5318 4.03304 26.9036 3.92879 27.2532 4.0203C27.6028 4.11182 27.8759 4.38486 27.9674 4.73449C28.0589 5.08412 27.9547 5.45593 27.6947 5.707L5.69471 27.707C5.30233 28.086 4.67863 28.0806 4.29289 27.6948C3.90716 27.3091 3.90174 26.6854 4.28071 26.293L8 22.586V5C8 3.34315 9.33086 2 10.9877 2H20.9877ZM18 24C18.5523 24 19 24.4477 19 25C19 25.5523 18.5523 26 18 26H14C13.4477 26 13 25.5523 13 25C13 24.4477 13.4477 24 14 24H18ZM12 4H11C10.4477 4 10 4.44772 10 5V20.586L22 8.586V5C22 4.44772 21.5523 4 21 4H20C20 4.55228 19.5523 5 19 5H13C12.4477 5 12 4.55228 12 4Z" fill="#1A1C1F"/>
</g>
<defs>
<clipPath id="clip0_185_733">
<rect width="32" height="32" fill="white"/>
</clipPath>
</defs>
</svg>

<svg xmlns="http://www.w3.org/2000/svg" width="32" height="32" fill="none"><g clip-path="url(#a)"><path fill="#1A1C1F" fill-rule="evenodd" d="M24 12.246V27a3 3 0 0 1-3 3H11a2.985 2.985 0 0 1-2.79-1.956L10 26.243V27a1 1 0 0 0 1 1h10a1 1 0 0 0 1-1V14.246zM20.988 2A3.01 3.01 0 0 1 24 5v1.586l2.28-2.293a1 1 0 1 1 1.415 1.414l-22 22a1 1 0 0 1-1.414-1.414L8 22.586V5c0-1.657 1.33-3 2.988-3zM18 24a1 1 0 1 1 0 2h-4a1 1 0 1 1 0-2zM12 4h-1a1 1 0 0 0-1 1v15.586l12-12V5a1 1 0 0 0-1-1h-1a1 1 0 0 1-1 1h-6a1 1 0 0 1-1-1" clip-rule="evenodd"/></g><defs><clipPath id="a"><path fill="#fff" d="M0 0h32v32H0z"/></clipPath></defs></svg>
